!!!!SEGMENT: pl-wnifc--6670-n--001-011_gall-jan-karol--piesni-polskie-na-chor-meski-z-i-11-ach-moj-jezu.krn
!!!cenid: 19xx:179
!!!COM: Gall, Jan Karol
!!!COM-rismID: pe50042628
!!!CDT: 1856-1912
!!!CNT: Polish
!!!GTL: Pieśni polskie na chór męski (z. I)
!!!OTL: 11. Ach mój Jezu
!!!OMV: 011
!!!PDT:
!!!AGN:
!!!YEC: Copyright 2022 Narodowy Instytut Fryderyka Chopina (https://polishscores.org)
!!!YEM: License CC-BY-4.0 (https://creativecommons.org/licenses/by/4.0)
!!!SMS-siglum: PL-Wnifc
!!!SMS-shelfmark: 6670/n
!!!SMS-variant:
!!!SMS-altvar:
!!!SMS-shelfwork: 001-011 G
!!!NIFC-rismSourceID: 1001152877
!!!NIFC-rismChildID: 1001152896
!!!NIFC-islandoraID: nifc:213182
!!!URL-pdf-islandora: https://repozytorium.nifc.pl/islandora/object/nifc:213182/datastream/PDF/view
!!!URL-scan: https://polish.musicsources.pl/pl/lokalizacje/galeria/druki-muzyczne/16895/7 @EN{Scan on Polish Music Sources Website} @PL{Skany w portalu Dziedzictwo Muzyki Polskiej w otwartym dostępie}
!!!IIIF:
!!!ONB-nifc:
!!!AIN: 1 bass 1 tenor
!!!key: B-
**kern	**dynam	**kern	**text	**text	**dynam
*part2	*part2	*part1	*part1	*part1	*part1
*staff2	*	*staff1	*staff1	*staff1	*
*ICvox	*	*ICvox	*	*	*
*Ibass	*	*Itenor	*	*	*
*I"Basy.	*	*I"Tenory.	*	*	*
*I'	*	*I'	*	*	*
*clefF4	*	*clefG2	*	*	*
*	*	*ITrd8c12	*	*	*
*k[b-e-]	*	*k[b-e-]	*	*	*
*B-:	*	*B-:	*	*	*
*M3/2	*	*M3/2	*	*	*
*>[A,A,B]	*>[A,A,B]	*>[A,A,B]	*>[A,A,B]	*>[A,A,B]	*>[A,A,B]
=1	=1	=1	=1	=1	=1
*>A	*>A	*>A	*>A	*>A	*>A
*^	*	*^	*	*	*
*	*	*	*	*	*	*	*
!!LO:TX:a:t=(na W. post.)
!!LO:TX:a:B:t=Lento.
!	!	!LO:DY:b:rj	!LO:TX:t=P:problem:partia zapisana bez przenośnika oktawowego	!	!	!	!LO:DY:a:rj
4F/	4BB-\	p	4d/	4B-\	Ach	Tam	p
4F/	4FF\	.	4c/	4A\	mój	cię	.
2F/	2BB-\	.	2d/	2B-\	Je-	a-	.
(4G/	2BB-\	.	(4e-/	2B-\	-zu	-nioł	.
4F/)	.	.	4d/)	.	.	.	.
=2	=2	=2	=2	=2	=2	=2	=2
4F/	4F\	.	4c/	4A\	jak	wsmut-	.
4F/	4F\	.	4B-/	4G\	ty	-ku	.
2F/	2F\	.	2c/	2A\	klę-	cie-	.
2F/	2F;\	.	2c;/	2A\	-czysz	-szył	.
=3	=3	=3	=3	=3	=3	=3	=3
!	!	!	!	!	!	!	!LO:DY:a
(4F/	(4AA\	<	2e-/	2c\	Wo-	skąd	<
8G-X/L)	8BB-\L)	.	.	.	.	.	.
8F/J	8AA\J	[	.	.	.	.	[
4F/	4AA\	.	4e-/	4c\	-groj-	był	.
4F/	4GGn\	.	4e-/	4B-\	-cu	swiat	.
4F/	4FF\	.	4f/	4A\	za-	po-	.
4F/	4AA\	.	4e-/	4c\	-krwa-	-cie-	.
!!LO:LB:g=original
=4	=4	=4	=4	=4	=4	=4	=4
(2F/	(2BB-\	.	(2d/	(2B-\	-wio-	-szo-	.
!	!	!	!	!	!	!	!LO:DY:a
2F/)	2F\)	>	2c/)	(4B-\)	.	.	>
.	.	.	.	4A\)	.	.	.
.	.	]	.	.	.	.	]
2F/	2BB-\	.	2d/	2B-\	-my	-ny	.
=5:|!	=5:|!	=5:|!	=5:|!	=5:|!	=5:|!	=5:|!	=5:|!
*>B	*>B	*>B	*>B	*>B	*>B	*>B	*>B
4F/	4D\	.	4f/	4B-\	Przyjdż	.	.
4F/	4D\	.	4f/	4B-\	mój	.	.
2F/	(4D\	.	(4f/	2B-\	Je-	.	.
.	4C\)	.	4e-/)	.	.	.	.
2F/	2BB-\	.	2d/	2B-\	-su	.	.
=6	=6	=6	=6	=6	=6	=6	=6
4G-X/	4BB-\	.	4e-/	4B-\	Przyjdż	.	.
4G-/	4BB-\	.	4e-/	4B-\	mój	.	.
(4G-/	2BB-\	.	(4e-/	2B-\	Je-	.	.
4F/)	.	.	4d/)	.	.	.	.
2F/	2F\	.	2c/	(4B-\	-zu	.	.
.	.	.	.	4A\)	.	.	.
=7	=7	=7	=7	=7	=7	=7	=7
4F/	4BB-\	.	4d/	4B-\	Przyjdż	.	.
4F/	4FF\	.	4c/	8B-\L	mój	.	.
.	.	.	.	8A\J	.	.	.
!	!	!	!	!	!	!	!LO:DY:a
2F/	2BB-\	<	2d/	2B-\	Je-	.	<
(4G-X/	2BB-\	[	(4e-/	2B-\	-zu	.	[
4F/)	.	.	4d/)	.	.	.	.
!!LO:LB:g=original
=8	=8	=8	=8	=8	=8	=8	=8
2G-X/	2E-\	.	2c/	2B-\	po-	.	.
!	!	!	!	!	!	!	!LO:DY:a
2F/	2F\	>	(4c/	(4A\	-ciesz	.	>
.	.	]	4B-/)	4Gn\)	.	.	]
2F/	2F;\	.	2c;/	2A\	mnie!	.	.
=9	=9	=9	=9	=9	=9	=9	=9
4F/	4AA\	.	4e-/	4c\	Bo	.	.
8G-X/L	8BB-\L	.	4e-/	4c\	cię	.	.
8F/J	8AA\J	.	.	.	.	.	.
!	!	!	!	!	!	!	!LO:DY:a
2F/	(4AA\	.	2e-/	(4c\	ko-	.	<
.	4GGn\)	.	.	4B-\)	.	.	.
.	.	.	.	.	.	.	[
4F/	4FF\	.	4f/	4A\	-cham	.	.
4F/	4AA\	.	4e-/	4c\	ser-	.	.
=10	=10	=10	=10	=10	=10	=10	=10
(2F/	(2BB-\	.	(2d/	(2B-\	-decz-	.	.
!	!	!	!	!	!	!	!LO:DY:a
(4G-X/)	(4E-\)	>	2c/)	(4B-\)	.	.	>
4F/)	4F\)	]	.	4A\)	.	.	]
2F/	2BB-\	.	2d/	2B-\	-nie!	.	.
*v	*v	*	*	*	*	*	*
*	*	*v	*v	*	*	*
==	==	==	==	==	==
*-	*-	*-	*-	*-	*-
!!!system-decoration: [(s1,s2)]
!!!RDF**kern: > = above
!!!RDF**kern: < = below
!!!RDF**kern: N = linked
!!!ENC: Andrzej Gręziak
!!!EED: Katarzyna Serwa
!!!END: 2024-05-02
!!!EEV: 2025-03-07
